X: 110
T: Tatter Jack Walsh
M: 6/8
L: 1/8
R: jig
K:Dmix
"D"~f3 ded |"Am(C)" cAB c2 e |"D" dcA "G"GFG|"D" Add "C"efg |
"D"fgf ded |"Am(C)" cAB c2 e |"D" dcA "G"GFG |"D" Ad^c d3 :|
|: "D"dfa afd | dfa afd |"G" ~g3  ged |"C" cde g3 |
"D"afd fed |"Am(C)" cAB c2e |"D" dcA "G"GFG| "D"Ad^c d3 :|


